X:58
T:Irish Whim THO1.058, The
M:2/4
L:1/8
Z:vmp. Peter Dunk 2012.from a transcription by Fynn Titford-Mock 2006
B:Thompson's Compleat Collection of 200 Favourite Country Dances Vol.I,1758
Q:1/4=100
K:G
GG Bd|g2B2|c/B/c/d/ cB|A/G/A/B/ AD|\
GG Bd|g2B2|c/B/c/d/ A/B/c/d/|BG G2:|
L:1/16
|:BdBG BdBG|cecA cecA|BdBG BdBG|edcB {B}A4|\
BdBG BdBG|cecA cecA|BdBG fgaf|gGGG G4:|

